gnomExtensions/.local/share/gnome-shell/extensions/Bluetooth-Battery-Meter@maniacx.github.com/icons/hicolor/scalable/actions/bbm-quick-settings-symbolic.svg

<svg height="16" viewBox="0 0 16 16" width="16" xmlns="http://www.w3.org/2000/svg"><path d="m3.4062498 1c-.9695 0-1.75.7805-1.75 1.75s.7805 1.75 1.75 1.75h5.25c.9695 0 1.7499992-.7805 1.7499992-1.75s-.7804992-1.75-1.7499992-1.75zm8.3124992 0v3.5l2.625001-1.75zm-9.8437492 5.25v1.75h12.2499992v-1.75zm0 3.5v1.75h12.2499992v-1.75zm0 3.5v1.75h12.2499992v-1.75z" fill="#2e3436"/></svg>

<?xml version="1.0" encoding="UTF-8"?>
<svg height="16px" viewBox="0 0 16 16" width="16px" xmlns="http://www.w3.org/2000/svg">
    <path d="M 3.4062498,1 C 2.4367498,1 1.6562498,1.7805 1.6562498,2.75 C 1.6562498,3.7195 2.4367498,4.5 3.4062498,4.5 H 8.6562498 C 9.6257498,4.5 10.406249,3.7195 10.406249,2.75 C 10.406249,1.7805 9.6257498,1 8.6562498,1 Z M 11.718749,1 V 4.5 L 14.34375,2.75 Z M 1.8749998,6.25 V 8 H 14.124999 V 6.25 Z M 1.8749998,9.75 V 11.5 H 14.124999 V 9.75 Z M 1.8749998,13.25 V 15 H 14.124999 V 13.25 Z" fill="#2e3436"/>
</svg>
